src/Pure/16/symbolic/apps/org.gnome.Settings-power-symbolic.svg

<?xml version="1.0" encoding="UTF-8" standalone="no"?>
<svg
   width="16px"
   height="16px"
   version="1.1"
   viewBox="0 0 16 16"
   id="svg1"
   sodipodi:docname="org.gnome.Settings-power-symbolic.svg"
   inkscape:version="1.4.2 (ebf0e940d0, 2025-05-08)"
   xmlns:inkscape="http://www.inkscape.org/namespaces/inkscape"
   xmlns:sodipodi="http://sodipodi.sourceforge.net/DTD/sodipodi-0.dtd"
   xmlns="http://www.w3.org/2000/svg"
   xmlns:svg="http://www.w3.org/2000/svg">
  <defs
     id="defs1">
     <style
        id="current-color-scheme"
        type="text/css">
        .ColorScheme-Text { color:#363636; }
     </style>
  </defs>
  <sodipodi:namedview
     id="namedview1"
     pagecolor="#ffffff"
     bordercolor="#000000"
     borderopacity="0.25"
     inkscape:showpageshadow="2"
     inkscape:pageopacity="0.0"
     inkscape:pagecheckerboard="0"
     inkscape:deskcolor="#d1d1d1"
     inkscape:zoom="49.75"
     inkscape:cx="7.9899497"
     inkscape:cy="8"
     inkscape:window-width="1920"
     inkscape:window-height="1011"
     inkscape:window-x="0"
     inkscape:window-y="0"
     inkscape:window-maximized="1"
     inkscape:current-layer="svg1" />
  <path
     id="path1"
     style="fill:currentColor"
     class="ColorScheme-Text"
     d="M 5 0 C 4.446 0 4 0.446 4 1 L 4 2 L 3 2 C 1.338 2 0 3.338 0 5 L 0 13 C 0 14.662 1.338 16 3 16 L 9 16 C 9.89093 16 10.685875 15.61278 11.234375 15 L 9 15 L 8.5 15 L 3 15 C 1.892 15 1 14.108 1 13 L 1 5 C 1 3.892 1.892 3 3 3 L 9 3 C 9.74278 3 10.387422 3.40192 10.732422 4 L 11.826172 4 C 11.415662 2.8333 10.3105 2 9 2 L 8 2 L 8 1 C 8 0.446 7.554 0 7 0 L 5 0 z M 5 1 L 7 1 L 7 2 L 5 2 L 5 1 z M 11 5 C 9.4725008 5.0007295 8.1892534 6.7229385 8.0195312 9 L 5.5 9 C 5.223 9 5 9.223 5 9.5 C 5 9.777 5.223 10 5.5 10 L 8.0195312 10 C 8.1892534 12.277061 9.4725008 13.99927 11 14 L 13 14 C 13.554 14 14 13.554 14 13 L 14 12 L 15.5 12 C 15.777 12 16 11.777 16 11.5 C 16 11.223 15.777 11 15.5 11 L 14 11 L 14 8 L 15.5 8 C 15.777 8 16 7.777 16 7.5 C 16 7.223 15.777 7 15.5 7 L 14 7 L 14 6 C 14 5.446 13.554 5 13 5 L 11 5 z M 11 6 L 13 6 L 13 13 L 11 13 C 9.8954305 13 9 11.432997 9 9.5 C 9 7.5670034 9.8954305 6 11 6 z " />
</svg>

<svg width="16px" height="16px" version="1.1" viewBox="0 0 16 16" xmlns="http://www.w3.org/2000/svg">
 <path d="m5 0c-0.554 0-1 0.446-1 1v1h-1c-1.662 0-3 1.338-3 3v8c0 1.662 1.338 3 3 3h6c0.89093 0 1.6859-0.38722 2.2344-1h-2.2344-0.5-5.5c-1.108 0-2-0.892-2-2v-8c0-1.108 0.892-2 2-2h1 1 2 1 1c0.74278 0 1.3874 0.40192 1.7324 1h1.0938c-0.41051-1.1667-1.5157-2-2.8262-2h-1v-1c0-0.554-0.446-1-1-1h-2zm0 1h2v1h-2v-1zm6 4a3 4.5 0 0 0-2.9805 4h-2.5195c-0.277 0-0.5 0.223-0.5 0.5s0.223 0.5 0.5 0.5h2.5195a3 4.5 0 0 0 2.9805 4h2c0.554 0 1-0.446 1-1v-1h1.5c0.277 0 0.5-0.223 0.5-0.5s-0.223-0.5-0.5-0.5h-1.5v-3h1.5c0.277 0 0.5-0.223 0.5-0.5s-0.223-0.5-0.5-0.5h-1.5v-1c0-0.554-0.446-1-1-1h-2zm0 1h2v7h-2a2 3.5 0 0 1-2-3.5 2 3.5 0 0 1 2-3.5z" fill="#363636"/>
</svg>
